X:1
T:Justin-Tyme
T:Justin-Tyme
T:Roy Bargy
T:From Piano Syncopations Vol. 1, Roy Bargy, 1922
T:From Piano Syncopations Vol. 1, Roy Bargy, 1922
T:From Piano Syncopations Vol. 1, Roy Bargy, 1922
T:From Piano Syncopations Vol. 1, Roy Bargy, 1922
T:From Piano Syncopations Vol. 1, Roy Bargy, 1922
C:Roy Bargy
Z:From Piano Syncopations Vol. 1, Roy Bargy, 1922
%%score { ( 1 3 ) | 2 }
L:1/8
Q:1/4=158
M:4/4
K:C
V:1 treble nm="Piano" snm="Pno."
V:3 treble 
V:2 bass 
V:1
!f! [DGd]2 z2 [^D^G^d]2 z2 | [EAe]>[F_Bf]-[FBf]>[^F=B^f]- [FBf]>[Gcg] [_A^c_a]2 | %2
 [=A=d=a]2!8va(! (3([f'a']b'a')!8va)! z3/2 b/ (3([fa]b)a | z3/2 A<Bd/ [Bg]2 (3(ef^f) |: %4
 [eg]>ag>e c>dc>A | [EG]>[EA]- [EA]>[D-_Ac-] [DAc]2 (3(ef^f) | [eg]>ag>e c>dc>A | %7
 [EG]>[EA]- [EA]>[_Gc-] [Gc]2 [_Ac_a]2 | [Gcg]>[Ad][Gc]>[Ad] [ce]>[Gg]-[Gg]>[ceac']- | %9
 [ceac']>[dg][ce]>[dg] [ea]>[cc']-[cc']>d | !>!a4 !>!a4 | !>!d4 !>!d4 | [eg]>ag>e c>dc>A | %13
 [EG]>[EA]- [EA]>[D-_Ac-] [DAc]2 (3(ef^f) | [eg]>ag>e c>dc>A | %15
 [EG]>[EA]- [EA]>[EAc]- [EAc]>a[cg]>e | [DGd]2 z2 [_E_A_e]2 z2 | %17
 [EAe]>[F_Bf]-[FBf]>[^F=B^f]- [FBf]>[Gcg] [_A^c_a]2 | %18
 [=A=d=a]2!8va(! (3([f'a']b'[f'a'])!8va)! z3/2 b/ (3([fa]ba) |1 (3z (^AB) g>e [Ec]2 (3(ef^f) :|2 %20
 (3z (^AB) g>e [Ec]>[cc'][cc']>[cc'] |: [_ac']>_B[g_b]>_A [f_a]>_B[g_b]>c | %22
 [_ac']>[ff']-[ff']>[=ec'=e']- [ec'e']>_a [dc'd']2 | [Geg]>F[df]>E [ce]>F[df]>G | %24
 [eg]>[cc']-[cc']>[Bgb]- [Bgb]>A [^fa]2 | [bd']>c[ac']>B [gb]>c[ac']>d | %26
 [bd']>[gg']-[gg']>[^fd'^f']- [fd'f']>d' [=fb=f']2 | [c'e']>d'a>[gb] a>d[ce]>d | %28
 A>[GB]A>D [CE]>D [_B,C]2 | [_ac']>_B[g_b]>_A [f_a]>B[gb]>c | %30
 [_ac']>[ff']-[ff']>[=ec'=e']- [ec'e']>_a [dc'd']2 | [Geg]>F[df]>E [ce]>E[df]>F | %32
 [eg]>[cc']-[cc']>[B^cgb]- [Bcgb]>A [cga]2 | [e=c'e']2 [dbd']>c [ac']>[e^fc'e']- [efc'e']>B | %34
 [eb]2 [Acea]>G [^cg]>[Bgb]- [Bgb]>[^d-c'-^d'] | %35
 [dc'^d']>[ee'][^dc'^d']>[ee'] [cc']>[Afa]-[Afa]>[cegc']- |1 %36
 [cegc']>g (3[c_b]ag (3[cb]ag (3[cb]ag :|2 [cegc']>a [Bfg]>a [cegc']2 z2 || %38
[K:F]!8va(! z3/2 [g'c'']/ f'>c' (3gfc _d2!8va)! | z3/2 [gc']/ f>c (3GFC _D2 | c8- | %41
 c4 [cegc']2 z2 |: [Ad]>FD>[^Gd] ^F>D [_E=Gd]>=A | [Dcd]2- [Dcd]>[^C^c] [Dd]>[Ee][=F=f]>[^F^f] | %44
 [ea]>dA>[ea] ^c>_B [=c_ea]2 | [=Bda]2- [Bda]>[Gg] [^F^f]>[Gg][Aa]>[=B=b] | %46
!8va(! [e_bd']2- [ebd']>c' [_ead']2- [ead']>c' | [=ebd']2- [ebd']>[cc'] [=B=b]>[cc'][dd']>[ee'] | %48
 [fac'f']>^c' [d'g']>^g [ad']>!8va)!^c [d=g]>^G | [Ad]GF[EBd]- [EBd]>e [EBc]2 | %50
 [Ad]>FD>[Gd] ^F>D [_EGd]>=A | [Dcd]2- [Dcd]>[^C^c] [Dd]>[Ee][=F=f]>[^F^f] | %52
 [ea]>dA>[ea] ^c>_B [=c_ea]2 | [=Bda]2- [Bda]>[Gg] [^F^f]>[Gg][Aa]>[=B=b] | %54
!8va(! [e_bd']2- [ebd']>c' [_ead']2- [ead']>c' | [=ebd']2- [ebd']>[cc'] [=B=b]>[cc'][dd']>[ee'] |1 %56
 [fac'f']>e'[^gad']>c'!8va)! [fa]>e[^GAd]>c | [FAd]>fd[EBe]- [EBe]>d [EBc]2 :|2 %58
!8va(! [fac'f']>^c' [d'g']>^g [ad']>!8va)!^c [d=g]f | [FAd]>[EBe]-[EBe]>c [FAf]>[Ff][Fef]>[Fef] |: %60
 [A,F]2 [FAf]2!8va(! [faf']2!8va)! (3(F^FG) | [=B,F_A]2 [=Bf_a]2!8va(! [=bf'_a']2!8va)! (3(fga) | %62
 [cfa]2 [dad']>[cc'] [dad']2 (3(FD)C | z3/2 c'/ [dad']>a c'>[dfd']-[dfd']>c' | %64
 [dbd']2 [dbd']>[cc'] [dbd']2 (3(GE)D | z2!8va(! [dbd']>[cc'] [dbd']>[ee'] [ff']>[gg'] | %66
 (3a'c''c' (3_d'f'f!8va)! (3fc'c (3_dfF | A>c [^GA]>=G [EF]>D [=B,C]>A, | %68
 [A,F]2 [FAf]2!8va(! [faf']2!8va)! (3(F^F)G | [=B,F_A]2 [=Bf_a]2!8va(! [=bf'_a']2!8va)! (3(fga) | %70
 [cfa]2 [dad']>[cc'] [dad']2 (3(FDC) | z3/2 [cc']<[dad'][cc']/ [d^fd']>[cc'][Bb]>[Aa] | %72
 !>![GBdg]4 !>![^Gdf^g]4 | [Acfa]>[Bb][=B=b]>[cc'] [ec'e']2 [dd']2 | %74
 [f_bd'f']>[dd'][ff']>[dd'] [cc']>[Acea]- [Acea]2 |1 [FAcf]>[=e'f']f>F f>F-F>A :|2 %76
 [FAcf]>d[EBc]>[dfg] [FAcf]2 z2 |] %77
V:2
 [E,_B,]2 C,2 [F,=B,]2 ^C,2 | [^F,C]>[G,^C]-[G,C]>[^G,D]- [G,D]>[A,_E] [_B,=E]2 | %2
 [=G,=B,F]2 z2[K:treble] [Bfa]2 z2 | [B,FA]2 z2[K:bass] [G,DF]2 G,,2 |: C,2 [G,CE]2 G,,2 [G,CE]2 | %5
 C,2 [E,G,C]2 F,,2 [_A,CD]2 | C,2 [G,CE]2 G,,2 [G,CE]2 | C,2 [E,G,C]2 _A,,2 [_G,CE]2 | %8
 C,2 [G,CE]2 G,,2 [G,CE]2 | A,,2 [E,A,C]2 A,,2 [G,A,E]2 | ([A,CD^F]2 D,2) ([A,CDF]2 D,2) | %11
 ([G,B,=F]2 G,,2) ([G,B,F]2 G,,2) | C,2 [G,CE]2 G,,2 [G,CE]2 | C,2 [E,G,C]2 F,,2 [_A,CD]2 | %14
 C,2 [G,CE]2 G,,2 [G,CE]2 | C,2 [E,G,C]2 A,,2 [E,G,C]2 | [E,_B,]2 C,2 [F,=B,]2 _D,2 | %17
 [^F,C]>[G,^C]- [G,C]>[^G,D]- [G,D]>[A,_E] [_B,=E]2 | [=G,=B,F]2 z2[K:treble] [Bfa]2 z2 |1 %19
 [B,FA]2[K:bass] [G,B,F]2 [C,G,]2 z2 :|2 [B,FA]2[K:bass] [G,B,F]2 [C,G,]2 z2 |: %21
 [F,,F,]2 [G,,G,]2 [_A,,_A,]2 [G,,G,]2 | [F,,F,]2 [_A,CF]2 [C,C]2 [_A,,_A,]2 | %23
 [C,,C,]2 [D,,D,]2 [E,,E,]2 [D,,D,]2 | [C,,C,]2 [G,CE]2 [E,,E,]2 [_E,,_E,]2 | %25
 [D,,D,]2 [A,C=F]2 G,,2 [A,CF]2 | D,2 [G,B,F]2 G,,2 [G,B,F]2 | [C,C]2 z2 z4 | z4 z2 [C,E,]2 | %29
 [F,,F,]2 [G,,G,]2 [_A,,_A,]2 [G,,G,]2 | [F,,F,]2 [_A,CF]2 [C,C]2 [_A,,_A,]2 | %31
 [C,,C,]2 [D,,D,]2 [E,,E,]2 [D,,D,]2 | [C,,C,]2 [G,CE]2 E,2 [G,A,^C]2 | %33
 [D,,D,]2 [E,,E,]2 [^F,,^F,]2 [=A,,=A,]2 | [G,,G,]2 [G,CE]2 [E,,E,]2 [G,A,^C]2 | %35
 [D,,D,]2 [^F,A,C]2 G,,2 [=F,G,B,]2 |1 [C,C]2 [C,,C,]2 [D,,D,]2 [E,,E,]2 :|2 %37
 [C,C]2 [G,,G,]2 [C,,C,]2 z2 ||[K:F][K:treble] [CFA]6 [=B,F^G]2 |[K:bass] [C,F,A,]6 [=B,,F,^G,]2 | %40
 z2 [C,G,]2 [C,_A,]2 [C,=A,]2 | [C,B,]2 [C,,C,]2[I:staff -1] [CEB]2[I:staff +1] z2 |: %42
[K:bass] [C,A,]3 [=B,,^G,]- [B,,G,]2 [_B,,=G,]2 | [A,,^F,]2 [D,F,C]2 D,,2 [D,A,C]2 | %44
 [=B,=F]3 [_B,=E]- [B,E]2 [A,_E_G]2 | [G,DF]2 [FG]2 G,,2 [G,B,F]2 | G,,2 [B,CE]2 ^F,,2 [A,C_E]2 | %47
 G,,2 [B,C=E]2 C,2 [B,CE]2 | [F,,C,A,]8 | z2 G,,[C,E,B,]- [C,E,B,]2 [C,E,B,]2 | %50
 [C,A,]3 [=B,,^G,]- [B,,G,]2 [_B,,=G,]2 | [A,,^F,]2 [D,F,C]2 D,,2 [D,A,C]2 | %52
 [=B,=F]3 [_B,=E]- [B,E]2 [A,_E_G]2 | [G,DF]2 [FG]2 G,,2 [G,B,F]2 | G,,2 [B,CE]2 ^F,,2 [A,C_E]2 | %55
 G,,2 [B,C=E]2 C,2 [B,CE]2 |1 [F,,C,A,]8 | [A,,F,C]3 [G,,G,]- [G,,G,]2 [C,,C,]2 :|2 [F,,C,A,]8 | %59
 [A,,F,C]2 [G,,G,]2 [F,,F,]2 z2 |:[K:bass] [D,,A,,D,]2 [A,D]2[K:treble] [Ad]2 z2 | %61
[K:bass] [_D,,_D,]2 [_DF]2[K:treble] [_df]2 z2 |[K:bass] [F,,F,]2 [A,C]2 [A,CF]2 [C,,C,]2 | %63
 [F,,F,]2 [A,CF]2 [A,,A,]2 [_A,,_A,]2 | [G,,G,]2 [G,B,C]2 [B,CE]2 [C,,C,]2 | %65
 [G,,G,]2 [B,CE]2 C,2 [B,CE]2 |[K:treble] [CFA]2 [=B,F_A]2[K:bass] [C,F,A,]2 [=B,,F,_A,]2 | %67
 [C,F,A,]8 | [D,,A,,D,]2 [A,D]2[K:treble] [Ad]2 z2 | %69
[K:bass] [_D,,_D,]2 [_DF]2[K:treble] [_df]2[K:bass] z2 | [F,,F,]2 [A,C]2 [A,CF]2 [C,,C,]2 | %71
 [F,,F,]2 [F,A,C]2 [D,,D,]2 [^F,A,C]2 | ([B,D]2 B,,2) ([=B,DF]2 =B,,2) | %73
 [C,C]2 [F,A,C]2 [D,,D,]2 [^F,A,C]2 | [G,,G,]2 [G,_B,DF]2 [C,,C,]2 [B,CE]2 |1 [F,,C,A,]6 F,2 :|2 %76
 [F,,F,]2 C,2 [F,,C,A,]2 z2 |] %77
V:3
 x8 | x8 | x2!8va(! x2!8va)! x4 | x8 |: x8 | x8 | x8 | x8 | x8 | x8 | (3e^fe d>d (3efe d>G | %11
 (3ABA G>G (3ABA G2 | x8 | x8 | x8 | x8 | x8 | x8 | x2!8va(! x2!8va)! x4 |1 x8 :|2 x8 |: x8 | x8 | %23
 x8 | x8 | x8 | x8 | x8 | x8 | x8 | x8 | x8 | x8 | x8 | x8 | x8 |1 x8 :|2 x8 || %38
[K:F]!8va(! x8!8va)! | x8 | z2 (3ECE F>D^F>_E | [EG]4 x4 |: x8 | x8 | x8 | x8 |!8va(! x8 | x8 | %48
 x11/2!8va)! x5/2 | x8 | x8 | x8 | x8 | x8 |!8va(! x8 | x8 |1 x4!8va)! x4 | x8 :|2 %58
!8va(! x11/2!8va)! x5/2 | x8 |: x4!8va(! x2!8va)! x2 | x4!8va(! x2!8va)! x2 | x8 | x8 | x8 | %65
 x2!8va(! x6 | x4!8va)! x4 | x8 | x4!8va(! x2!8va)! x2 | x4!8va(! x2!8va)! x2 | x8 | x8 | x8 | x8 | %74
 x8 |1 x8 :|2 x8 |] %77

